X:11910
T:no name
R:polka
Z:id:hn-polka-44
M:2/4
L:1/8
K:A
ef/e/ ce/c/|BE A>c|BE AB|cB Bc|ef/e/ ce/c/|BE A>c|BE AB|cA A2:|
|:ce ab/a/|gf f>e|ce fa|fe cB|ce ab/a/|gf fe|ce fg|a2 a2:|


